build/svg/cmd/lc_extrusionsurfacefloater.svg

<?xml version="1.0" encoding="UTF-8" standalone="no"?>
<svg
   xmlns:dc="http://purl.org/dc/elements/1.1/"
   xmlns:cc="http://creativecommons.org/ns#"
   xmlns:rdf="http://www.w3.org/1999/02/22-rdf-syntax-ns#"
   xmlns:svg="http://www.w3.org/2000/svg"
   xmlns="http://www.w3.org/2000/svg"
   xmlns:sodipodi="http://sodipodi.sourceforge.net/DTD/sodipodi-0.dtd"
   xmlns:inkscape="http://www.inkscape.org/namespaces/inkscape"
   viewBox="0 0 24 24"
   version="1.1"
   id="svg6"
   sodipodi:docname="lc_extrusionsurfacefloater.svg"
   inkscape:export-filename="/home/jupiter007/Libreoffice yaru theme fullcolor/build/cmd/lc_extrusionsurfacefloater.png"
   inkscape:export-xdpi="95"
   inkscape:export-ydpi="95"
   inkscape:version="0.92.5 (2060ec1f9f, 2020-04-08)">
  <metadata
     id="metadata12">
    <rdf:RDF>
      <cc:Work
         rdf:about="">
        <dc:format>image/svg+xml</dc:format>
        <dc:type
           rdf:resource="http://purl.org/dc/dcmitype/StillImage" />
      </cc:Work>
    </rdf:RDF>
  </metadata>
  <defs
     id="defs10" />
  <sodipodi:namedview
     pagecolor="#ffffff"
     bordercolor="#666666"
     borderopacity="1"
     objecttolerance="10"
     gridtolerance="10"
     guidetolerance="10"
     inkscape:pageopacity="0"
     inkscape:pageshadow="2"
     inkscape:window-width="1920"
     inkscape:window-height="1011"
     id="namedview8"
     showgrid="false"
     inkscape:zoom="9.8333333"
     inkscape:cx="0.66101695"
     inkscape:cy="12"
     inkscape:window-x="0"
     inkscape:window-y="32"
     inkscape:window-maximized="1"
     inkscape:current-layer="svg6" />
  <path
     d="m6.9980469 4-2.9980469 3v13h14l3-3v-13z"
     fill="#b3b3b3"
     id="path2"
     style="fill:#cae795;fill-opacity:1" />
  <path
     d="m6.96875 4-2.96875 2.96875v1.4375 11.59375h1 12 1l3-3v-12-.25-.40625-.34375h-13zm.4375 1h11.90625l-2 2h-.3125-11.59375zm12.59375.75v10.8125l-2 2v-10.8125zm-15 2.25h12v.75 10.25h-12z"
     fill="#232629"
     id="path4"
     style="fill:#46a926;fill-opacity:1" />
</svg>

<svg xmlns="http://www.w3.org/2000/svg" viewBox="0 0 24 24"><path d="M6.998 4L4 7v13h14l3-3V4z" fill="#cae795"/><path d="M6.969 4L4 6.969V20h14l3-3V4H8zm.437 1h11.907l-2 2H5.405zM20 5.75v10.813l-2 2V7.75zM5 8h12v11H5z" fill="#46a926"/></svg>
